img/twitter-icon.svg

<svg width="44" height="43" viewBox="0 0 44 43" fill="none" xmlns="http://www.w3.org/2000/svg">
<path fill-rule="evenodd" clip-rule="evenodd" d="M22.0093 41.6428C33.1001 41.6428 42.091 32.6519 42.091 21.5611C42.091 10.4703 33.1001 1.47937 22.0093 1.47937C10.9184 1.47937 1.92755 10.4703 1.92755 21.5611C1.92755 32.6519 10.9184 41.6428 22.0093 41.6428ZM31.0292 17.5487C31.0292 17.3479 31.0292 17.143 31.0166 16.9464C31.9245 16.2895 32.7152 15.4653 33.3469 14.5366C32.5102 14.9005 31.6065 15.1599 30.6694 15.2603C31.6358 14.6872 32.3638 13.7793 32.711 12.7041C31.8157 13.2312 30.8116 13.6245 29.7615 13.8211C28.9122 12.9175 27.7073 12.3569 26.3686 12.3569C23.532 12.3569 21.1724 14.9131 21.8292 18.0718C19.9809 17.9795 18.1727 17.4994 16.5221 16.6626C14.8715 15.8257 13.4154 14.6509 12.2486 13.2145C11.8428 13.9006 11.6169 14.6914 11.6169 15.5574C11.6174 16.3224 11.8066 17.0754 12.1679 17.7498C12.5291 18.4241 13.0512 18.9989 13.6878 19.4231C12.9305 19.3938 12.2068 19.1805 11.5918 18.8332V18.8918C11.5896 19.9645 11.9589 21.0049 12.6369 21.8362C13.3149 22.6675 14.2598 23.2384 15.3111 23.452C14.5747 23.6403 13.9304 23.6403 13.215 23.5357C13.8007 25.3765 15.5161 26.7153 17.5577 26.7571C15.9637 28.0039 13.9639 28.7402 11.7884 28.7402C11.4035 28.7402 11.0437 28.7235 10.6672 28.6816C12.7255 29.9995 15.1688 30.7651 17.8045 30.7651C26.3518 30.7651 31.0292 23.6905 31.0292 17.5488V17.5487Z" fill="#928A97"/>
</svg>

<svg width="44" height="43" fill="none" xmlns="http://www.w3.org/2000/svg"><path fill-rule="evenodd" clip-rule="evenodd" d="M22.01 41.643c11.09 0 20.081-8.991 20.081-20.082 0-11.09-8.99-20.082-20.082-20.082-11.09 0-20.081 8.991-20.081 20.082 0 11.09 8.99 20.082 20.081 20.082Zm9.02-24.094c0-.201 0-.406-.013-.603a9.74 9.74 0 0 0 2.33-2.41 9.192 9.192 0 0 1-2.678.724 4.625 4.625 0 0 0 2.042-2.556 9.18 9.18 0 0 1-2.95 1.117 4.638 4.638 0 0 0-3.392-1.464c-2.837 0-5.197 2.556-4.54 5.715a13.192 13.192 0 0 1-9.58-4.857 4.555 4.555 0 0 0-.632 2.342 4.649 4.649 0 0 0 2.07 3.866 4.649 4.649 0 0 1-2.095-.59v.059a4.644 4.644 0 0 0 3.72 4.56c-.737.188-1.382.188-2.097.084a4.648 4.648 0 0 0 4.343 3.221 9.322 9.322 0 0 1-5.77 1.983c-.385 0-.744-.016-1.12-.058a13.177 13.177 0 0 0 7.137 2.083c8.547 0 13.224-7.075 13.224-13.216Z" fill="#928A97"/></svg>
